shader_type canvas_item;
uniform bool allowed = false;

void fragment() {
	COLOR.rgb = vec3(1.0);
	
}

//void light() {
//	// Called for every pixel for every light affecting the CanvasItem.
//	// Uncomment to replace the default light processing function with this one.
//}
